brandFactory_export/2.Regular/Importar_2Regular.svg

<?xml version="1.0" encoding="UTF-8"?>
<svg width="24px" height="24px" viewBox="0 0 24 24" version="1.1" xmlns="http://www.w3.org/2000/svg" xmlns:xlink="http://www.w3.org/1999/xlink">
    <title>2.Regular/Importar_2Regular</title>
    <g id="Symbols" stroke="none" stroke-width="1" fill="none" fill-rule="evenodd">
        <g id="2.Regular/Importar_2Regular" fill="#5CB615" fill-rule="nonzero">
            <path d="M5.02184874,8.89747899 C4.46386555,8.89747899 4.01008403,8.44705882 4.01008403,7.88907563 C4.01008403,7.62016807 4.11764706,7.36134454 4.30588235,7.1697479 L11.1663866,0.295798319 C11.5630252,-0.0974789916 12.2016807,-0.0974789916 12.5983193,0.295798319 L19.3781513,7.08235294 C19.7815126,7.47226891 19.7915966,8.11092437 19.405042,8.51428571 C19.0151261,8.91764706 18.3764706,8.92773109 17.9731092,8.54117647 C17.9630252,8.53445378 17.9563025,8.52436975 17.9462185,8.51428571 L12.8941176,3.45882353 L12.8941176,16.7193277 C12.8739496,17.2773109 12.4033613,17.7142857 11.8420168,17.6941176 C11.3142857,17.6739496 10.887395,17.2504202 10.8672269,16.7193277 L10.8672269,3.45882353 L5.73445378,8.59831933 C5.54621849,8.78991597 5.28739496,8.89747899 5.02184874,8.89747899 Z M22.6117647,16.6957983 C23.1697479,16.6957983 23.6235294,17.1495798 23.6235294,17.707563 L23.6235294,22.6117647 C23.6235294,23.1697479 23.1697479,23.6235294 22.6117647,23.6235294 L1.01176471,23.6235294 C0.453781513,23.6235294 0,23.1697479 0,22.6117647 L0,17.707563 C0.0201680672,17.1495798 0.490756303,16.712605 1.05210084,16.7327731 C1.57983193,16.7529412 2.00672269,17.1764706 2.02689076,17.707563 L2.02689076,21.6 L21.6033613,21.6 L21.6033613,17.707563 C21.6,17.1495798 22.0537815,16.6957983 22.6117647,16.6957983 L22.6117647,16.6957983 Z" id="Importar_2Regular"></path>
        </g>
    </g>
</svg>

<svg width="24" height="24" viewBox="0 0 24 24" xmlns="http://www.w3.org/2000/svg"><path d="M5.022 8.897A1.01 1.01 0 014.01 7.89c0-.269.108-.528.296-.72l6.86-6.873a1.016 1.016 0 011.432 0l6.78 6.786a1.014 1.014 0 01-1.405 1.46c-.01-.008-.017-.018-.027-.028L12.894 3.46v13.26a1.014 1.014 0 01-2.027 0V3.46l-5.133 5.14c-.188.19-.447.298-.712.298zm17.59 7.799c.558 0 1.012.454 1.012 1.012v4.904c0 .558-.454 1.012-1.012 1.012h-21.6A1.013 1.013 0 010 22.612v-4.904a1.014 1.014 0 012.027 0V21.6h19.576v-3.892a1.008 1.008 0 011.009-1.012z" fill="#5CB615" fill-rule="nonzero"/></svg>
